X:7536
T:Imeland och Grimeland
R:Schottis
H:Norwegian Reila:nder
K:Amix
M:C|
EDEF E2E2|EAcB B2A2|c3B G2G2|GBec A2A2|
EDEF E2E2|EAcB B2A2|c2cB GBec|A2A2 A4:|
|:agab g2gf|efec A2A2|c3B G2G2|GBec A2A2|
agab gagf|efec A2A2|c2cB GBec|A2A2 A4:|
